X:56
T:Saratoga Hornpipe
C:Joe Buchanan's Scottish Tome - Page 239.3
I:239 3
Z:Carl Allison
L:1/8
M:4/4
R:Hornpipe
K:F
|: AB | "F"cB=cA "Bb"d_Bfd | "F"cAFA "D7"cAdc | "Gm"BAGB "F"AGFA | "C"Gc=Bd "C7"c_BAB |
"F"cBcA "Bb"dBfd | "F"cAFA "Dm"cdef | "Gm"defg "C7"efga | "F"f2 "Bb"f2 "F"f2 :|
ef |: "Dm"gAgA fAeA | "Dm"fAeA dAfA | "A7"eA^ce agfe | "Dm"fg"A7"ef "Dm"defg |
"Dm"aAgA fAeA | "Dm"fAeA dAdf | "Gm"defg "C7"efga | "F"f2 f2 "Bb"f2 :|

